!!!COM: Schumann, Robert
!!!CDT: 1810/06/08/-1856/07/29/
!!!OPR@@DE: Zw&ouml;lf Gedichte (Kerner) f&uuml;r Singstimme und Klavier
!!!OPR@EN: Twelve Poems (Kerner) for Voice and Piano
!!!OTL@@DE: Wanderlied
!!!OTL@EN:  The Farewell
!!!ODT: 1840///
!!!OPS: Op. 35
!!!ONM: No. 3
!!!SMA: Schirmer's Library of Musical Classics, Vols. 120, 121, Pub. 1903
!!!SMA: Robert Schumann Fifty-Five Songs with Pianoforte Accompaniment
!!!RNB: English translations by Dr. Theo. Baker and others.
!!!EST: Only vocal part encoded
!!!OMD@@DE: Sehr lebhaft
!!!OMD@IT:  Vivacissimo
!!!YEN: Copyright 2001 by Craig Stuart Sapp
!!!YEC: United States of America
**kern	**text	**text
!	!German	!English
*Ivox	*Ivox	*Ivox
*clefG2	*clefG2	*clefG2
*k[f#]	*k[f#]	*k[f#]
*G:	*G:	*G:
*met(C)	*met(C)	*met(C)
*M4/4	*M4/4	*M4/4
*MM160	*MM160	*MM160
8r	.	.
=1	=1	=1
1r	.	.
=2	=2	=2
2r	.	.
4r	.	.
8.r	.	.
16g	Wohl-	Come,
=3	=3	=3
4g	-auf!	fill
8.d	noch	up
16d	ge-	a
4d	-trun-	bum-
8.B	-ken	-per
16B	den	be-
=4	=4	=4
(8BL	fun-	-fore
8dJ)	.	.
8g	-keln-	we
8b	-den	de-
4..dd	Weln!	-part,
16b	A-	A-
=5	=5	=5
4b	-de	-gain
8.g	nun,	will
16g	ihr	I
4g	Lie-	pledge
8.d	-ben,	ye,
16d	ge-	old
=6	=6	=6
(8BL	-schie-	friends
8dJ)	.	.
8g	-den	of
8b	muss	my
4.ee	sein.	heart!
8dd	A-	Fare-
=7	=7	=7
(4ccL	de	-well,
8bJ)	nun,	love-
8b	ihr	-ly
4a	Ber-	scenes,
8b	-ge,	dear
8b	du	to
=8	=8	=8
8cc	vä-	kin-
8b	.	.
8a	-ter-	-dred
8g	-lich	and
4..dd	Haus!	home,
16b	Es	For
=9	=9	=9
4b	treibt	leave
8.a	in	ye
16g	dir	I
4cc	Fer-	must,
8b	-ne	through
8a	mich	the
=10	=10	=10
4dd^	mäch-	wide
8.d	-tig	world
16d	hin-	to
[2g	-aus!	roam.
=11	=11	=11
2g]	.	.
2r	.	.
=12	=12	=12
2r	.	.
4r	.	.
8.r	.	.
16g	Die	The
=13	=13	=13
4g	Son-	sun
8.d	-ne,	in
16d	sie	the
4d	blei	heav-
8.B	bet	-ens
16B	am	he
=14	=14	=14
(8BL	Him-	nev-
8dJ)	.	.
8g	-mel	-er
8b	nicht	stands
4..dd	steh'n,	still,
16b	es	But
=15	=15	=15
4b	treibt	rolls
8.g	sie	in
16g	durch	his
4g	Län-	or-
8.d	-der	-bit
16d	und	his
=16	=16	=16
(8BL	Mee-	course
8dJ)	.	.
8g	-re	to
8b	zu	ful-
4.ee	geh'n,	-fil:
8dd	die	The
=17	=17	=17
4cc	Wo-	bil-
8b	-ge	-lows
8b	nicht	re-
4a	haf-	-tire
8b	-tet	from
8b	am	the
=18	=18	=18
(8ccL	ein-	~wide-
8bJ)	.	.
8a	-sa-	~sprea~
8g	-men	~ding
4..dd	Strand,	sand,
16b	die	The
=19	=19	=19
4b	Stür-	storm
8.a	-me,	in
16g	sie	its
4cc	brau-	might
8b	-sen	rush-
8a	mit	-es
=20	=20	=20
4dd^	Macht	o-
8.d	durch	-ver
16d	das	the
[2g	Land!	land.
=21	=21	=21
2g]	.	.
2r	.	.
=22	=22	=22
2r	.	.
4r	.	.
8.r	.	.
16g	Mit	The
=23	=23	=23
4g	ei-	bird
8.d	-len-	with
16d	-den	the
4d	Wol-	cloud
8.B	-ken	wing-
16B	der	-eth
=24	=24	=24
(8BL	Vo-	swift-
8dJ)	.	.
8g	-gel	-ly
8b	dort	a-
4..dd	zieht	-way,
16b	und	And
=25	=25	=25
4b	singt	sings
8.g	in	in
16g	der	a
4g	Fer-	far
8.d	-ne	land
16d	ein	har
=26	=26	=26
(8BL	hei-	old,
8dJ)	.	.
8g	-math-	hap-
8b	-lich	-py
4.ee	Lied.	lay.
8dd	So	And
=27	=27	=27
4cc	treibt	youth
8.b	es	full
16b	den	of
4a	Bur-	ar-
8b	-schen	-dor
8b	durch	leaves
=28	=28	=28
(8ccL	Wäl-	all
8bJ)	.	.
8a	-der	it
8g	und	holds
4..dd	Feld,	dear,
16b	zu	Re-
=29	=29	=29
4b	glei-	-joi-
8.a	-chen	-cing
16g	der	in
4cc	Mut-	change,
8b	-ter,	like
8a	der	this
=30	=30	=30
4dd	wan-	wan-
8.d	-dern-	-der-
16d	-den	-ing
[2g	Welt!	sphere.
=31	=31	=31
2g]	.	.
2r	.	.
=32||	=32||	=32||
!! Etwas langsamer
*k[b-e-a-]	*k[b-e-a-]	*k[b-e-a-]
2r	.	.
4r	.	.
8r	.	.
8g	Da	In
=33	=33	=33
4g	grü-	lands
8g	-ssen	o'er
8g	ihn	the
4g	Vö-	o-
8a-	-gel	-cean
8a-	be-	the
=34	=34	=34
4b-	-kannt	for-
8b-	ü-	-est
8b-	-ber'm	sup-
4.f	Meer,	-plies
8a-	sie	The
=35	=35	=35
4a-	flo-	birds
8a-	-gen	that
8a-	von	so
4a-	Flu-	oft-
8b-	-ren	-en
8b-	der	at
=36	=36	=36
4cc	Hei-	home
8cc	-math	met
8cc	hier-	his
4.g	-her,	eye,
8cc	da	While
=37	=37	=37
4cc	dur-	flow'rs
8cc	-ten	in
8cc	die	their
(8ee-L	Blu-	beau-
8b-J)	.	.
8b-	-men	-ty
8b-	ver-	a-
=38	=38	=38
4a-	-trau-	-dorn
8a-	-lich	all
8b-	um	the
4.g	ihn,	ground,
8cc	sie	And
=39	=39	=39
4cc	trie-	fill
8cc	-ben	with
8cc	vom	their
(8ee-L	Lan-	o-
8b-J)	.	.
8b-	-de	-dor
8b-	die	the
=40	=40	=40
4a-	Lüf-	val-
8a-	-te	-leys
8b-	da-	a-
4g	-hin.	-round.
8r	.	.
8g	Die	The
=41	=41	=41
4f	Vö-	song-
8ee-	-gel,	-sters
8ee-	die	re-
4dd	ken-	-mind
8b-	-nen	him
8b-	sein	of
=42	=42	=42
(8ddL	vä-	home
8ccJ)	.	.
8b-	-ter-	by
8an	-lich	their
4.b-	Haus,	lay;
8f	die	The
=43	=43	=43
4f	Blu-	flow'rs,
8ee-	-men,	of
8ee-	die	his
4dd	pflanzt'	dear
8b-	er	one
8b-	der	in
=44	=44	=44
(8ddL	Lie-	gar-
8ccJ)	.	.
8b-	-be	-lands
8an	zum	of
4.b-;	Strauss,	May
8b-	und	And
=45	=45	=45
4b-	Lie-	love
8f#	-be,	nev-
8f#	die	-er
4g	folgt	leaves
8g	ihm,	him,
8g	sie	wher-
=46	=46	=46
4cc	geht	-e're
8g	ihm	he
8g#	zur	may
4.an;	Hand:	roam,
8cc	so	But
=47	=47	=47
4cc	wird	far
8b-	ihm	a-
8b-	zur	-mong
(4a-L	Hei-	stran-
8gJ)	-math	-gers
8g	das	he
=48	=48	=48
4f	fer-	still
8b-	-ne-	is
8a-	-ste	at
4.g	Land,	home,
8g	so	But
=49	=49	=49
4cc	wird	far
8b-	ihm	a-
8b-	zur	-mong
8b-	Hei-	stran-
8a-	.	.
8g	-math	-gers
8g	das	he
=50	=50	=50
4f	fer-	still
8g	-nes-	is
8d	-te	at
2e-	Land.	home.
=51||	=51||	=51||
*k[f#]	*k[f#]	*k[f#]
1r	.	.
=52	=52	=52
2r	.	.
4r	.	.
8.r	.	.
16g	Wohl-	Come,
=53	=53	=53
4g	-auf!	fill
8.d	noch	up
16d	ge-	a
4d	-trun-	bum-
8.B	-ken	-per
16B	den	be-
=54	=54	=54
(8BL	fun-	-fore
8dJ)	.	.
8g	-keln-	we
8b	-den	de-
4..dd	Wein!	-part,
16b	A-	A-
=55	=55	=55
4b	de	-gain
8.g	nun,	will
16g	ihr	I
4g	Lie-	pledge
8.d	-ben,	ye,
16d	ge-	old
=56	=56	=56
(8BL	-schie-	friends
8dJ)	.	.
8g	-den	of
8b	muss	my
4.ee	sein.	heart!
8dd	A-	Fare-
=57	=57	=57
4cc	de	-well,
8b	nun,	love-
8b	ihr	-ly
4a	Ber-	scenes,
8b	-ge,	dear
8b	du	to
=58	=58	=58
(8ccL	vä-	kin-
8bJ)	.	.
8a	-ter-	-dred
8g	-lich	and
4..dd	Haus!	home,
16b	Es	For
=59	=59	=59
4b	treibt	leave
8.a	in	ye
16g	die	I
4cc	Fer-	must,
8c	-ne	through
16r	.	.
16cc#	mich	the
=60	=60	=60
4cc#	mäch-	wide
8b	-tig	world
8a	hin-	to
4.dd;	-aus,	roam,
8dd	es	for
=61	=61	=61
4dd	treibt	leave
8dd	in	ye
8dd#	die	I
(8ff#L	Fer-	must,
8eeJ)	.	.
8ddn	-ne	through
8cc	mich	the
=62	=62	=62
4b	mäch-	wide
8.a	-tig	world
16a	hin-	to
[2g	-aus!	roam!
=63	=63	=63
2g]	.	.
2r	.	.
=64	=64	=64
1r	.	.
=65	=65	=65
1r	.	.
=66	=66	=66
1r	.	.
=67	=67	=67
1r	.	.
=68	=68	=68
1r	.	.
=69	=69	=69
1r	.	.
=70	=70	=70
1r	.	.
=71	=71	=71
1r;	.	.
==	==	==
*-	*-	*-
